X:1
T:Intenerite voi
T:Intenerite voi
T:Angelo Notari
T:Source : Musiche nuove a 1,2 et 3 voci+BC---London---W.Hole---1613. Editor : André Vierendeels (24/03/14).
T:Notes : Original clefs : C1, C1, F4 Editorial accidentals above the staff Original is manuscript
C:Angelo Notari
%%score [ 1 2 ] 3
L:1/8
Q:1/4=120
M:4/4
K:C
V:1 treble nm="Soprano 1" snm="S 1"
V:2 treble nm="Soprano 2" snm="S 2"
V:3 bass nm="B.C."
V:1
 z8 | e6 EE | E6 E2 | E4 G4- | G2 G2 ^F4 | z4 e4- | e4 d4- | d4 c4 | B8 | A8 | z8 | ^c6 cc | %12
w: |In- te- ne-|ri- te|voi la-|* gri- me,|la-|* gri-|* me|mi-|e,||in- te- ne-|
 ^c4 d4- | d4 ^c4 |"^-natural" c8 | _B8- | B4 A4 | G8 | F4 z4 | z4 d4- | d2 cB c4- | c2 G2 _B4 | %22
w: ri- te|_ voi,|quel|du-|* ro|co-|re,|ch'in|_ van per- co-|* te'A- mo-|
 A4 d4- | d2 cB ^c4 | ^c2 d4 c2 | d8 | z4 d4- | d4 cBAG | A8 | G8 | d6 AA | A2 c2 c4 | e8- | %33
w: re, ch'in|_ van per- co-|te'A- mo- *|re,|ver-|* sa- te'a mil- le'a|mil-|le|fa- te di|pian- to'un mar|do-|
 e4 d4- | d4 d4 | d8 | c8 |: d8 | z4 z e c>d | e4 decB | AABc d4- | d2 cB AAAB | c4 B2 Bc | d6 cd | %44
w: * len-|* ti|stil-|le,|O,|O, _ _|_ quel mio va- go-|sco- glio d'al- te- rez-|* za'e d'or- go- glio, ri- per-|cos- so, ri- per-|cos- so da|
 e8 | z4 d4- | d4 c4- | c4 B4- | B4 A4- | A8- | A8 | G2 BB B2 cd | e2 GG G2 AB | c4 z4 | e2 dc B4 | %55
w: voi|men|_ du-|* ro|_ si-|||a,- O se n'es- ca con|voi, O se n'es- ca con|voi|l'a- ni- ma mi-|
 A2 AA A2 Bc | d4 z4 | e6 EE | E8- | E8 | D8- | D8 :| %62
w: a, O se n'es- ca con|voi|l'a- ni- ma|mi-||a.|_|
V:2
 z4 d4- | d2 cc c4- | c4 B4 | A4 z4 | z4 d4- |"^-natural" d2 d2 c4- | c4 B4 | ^G4 A4- | A4 ^G4 | %9
w: te-|* ne- ri- te|* voi|la-|gri-|* me, la-|_ gri-|me mi-|_ e,|
 A8 | z4 A4- | A2 EE E4- | E4 F4 | E8 | z4 A4- | A4 G4- | G4 F4- | F4 E4 | F2 A4 GF | G6 D2 | %20
w: in-|te-|* ne- ri- te|* voi,|quel|du-|_ ro|* co-|_ re,|ch'in van par- co-|te'A- mo-|
 F4 E4 | z4 G4- | G2 FE F4- | F4 EAGF | E2 F<G E4 | D8 | z4 B4- | B4 AG^FE | ^F2 G4 F2 | G4 B4- | %30
w: re, ch'in|van|_ par- co- te,|* ch'in van par- co-|te' A- mo- re,|ver-|sa-|* te'a mil- le'a mil-|le, * *|fa- te|
 B2 ^FF F4- | F2 G2 A4 | z4 c4- | c4 A4 | B4 c4- | c4 B4 | c8 |: B8 | z c A>B c4- | c4 BcAG | %40
w: * di pian- to'un|* mar do-|len-|* ti|stil- le,||O,|O,|quel _ _ _|_ mio va- go- sco-|
 ^FFGA B2 AG | ^F2 G4 F2 |"^#" z2 EF G4 | G2 GA B2 AB | c2 E^F G2 FG | A8 | z4 A4- | A4 G4- | G8 | %49
w: glio d'al- te- rez- za d'or- go-|glio, * ri-|per- cos- so,|ri- per- cos- so da voi,|ri- per- cos- so da voi|men|du-|_ ro||
 ^F4 G4- | G4 ^F4 | G8 | z2 EE E2 FG | A4 c2 BA | ^G2 A4 G2 | A2 ^FF F2 GA | B4 c4 | ^c2 E2 E4 | %58
w: si- a,||O|se n'es- ca con voi-|l'a- ni- ma mi-|a, * *|O se n'es- ca con voi|l'a- ni-|* ma mi-|
 ^C4 D4- | D4 ^C4 | D8- | D8 :| %62
w: a. *||||
V:3
 D,8 | A,,8 | A,,4 ^G,,4 | A,,4 B,,4 | ^C,4 D,4 |"^-natural" B,,4 C,4 | F,8 | E,8- | E,8 | A,,8 | %10
 A,,8 | A,,8- | A,,8 | A,,8- | A,,4 F,4 | _B,,8 | C,8- | C,8 | F,,4 C,4 | B,,4 _B,,4 | A,,8 | %21
 C,4 G,,4 | D,6 C,B,, | A,,8 | A,,8 | D,8 | B,,8 | E,8 | D,2 C,2 D,4 | G,,8 | B,,4 D,4- | %31
"^-natural" D,2 E,2 F,4 | C,8 | F,8 | G,8- | G,8 | C,8 |: G,8 | C,8 | C,4 G,,2 A,,B,, | %40
 D,D,B,,A,, G,,2 B,,C, | D,8 | A,,4 E,4 | B,,2 A,,2 G,,4 | C,4 E,2 D,2 | ^C,4 D,4 | B,,4 C,4 | %47
 D,4 E,4 | B,,4 ^C,4 |"^-natural" D,4 C,4 | D,8 | G,,2 G,2 E,4 | C,4 C,4 | A,,4 A,2 G,F, | E,8 | %55
 A,,2 D,4 B,,A,, | G,,4 C,2 B,,2 | A,,4 A,,4- | A,,4 G,,4 | A,,8 | D,8- | D,8 :| %62

